actions/symbolic/zoom-fit-best-symbolic.svg

<svg xmlns="http://www.w3.org/2000/svg" viewBox="0 0 16 16">
  <defs id="defs3051">
    <style type="text/css" id="current-color-scheme">
      .ColorScheme-Text {
        color:#bebebe;
      }
      </style>
  </defs>
 <path 
       style="fill:currentColor;fill-opacity:1;stroke:none"
	 class="ColorScheme-Text"
        d="M 3.1875 2.0039062 C 2.5248 2.0039062 2 2.5528462 2 3.2226562 L 2 7.0039062 L 4 7.0039062 L 4 4.0039062 L 7 4.0039062 L 7 2.0039062 L 3.1875 2.0039062 z M 9 2.0039062 L 9 4.0039062 L 12 4.0039062 L 12 7.0039062 L 14 7.0039062 L 14 3.2226562 C 14 2.5528962 13.4752 2.0039062 12.8125 2.0039062 L 9 2.0039062 z M 2 9.0039062 L 2 12.785156 C 2 13.454916 2.5248 14.003906 3.1875 14.003906 L 7 14.003906 L 7 12.003906 L 4 12.003906 L 4 9.0039062 L 2 9.0039062 z M 12 9.0039062 L 12 12.003906 L 9 12.003906 L 9 14.003906 L 12.8125 14.003906 C 13.4752 14.003906 14 13.454966 14 12.785156 L 14 9.0039062 L 12 9.0039062 z "
     />
</svg>

<svg xmlns="http://www.w3.org/2000/svg" viewBox="0 0 16 16">
  <path fill="#bebebe" d="M3.188 2.004C2.524 2.004 2 2.553 2 3.223v3.78h2v-3h3v-2H3.187zm5.812 0v2h3v3h2V3.223c0-.67-.525-1.22-1.188-1.22H9zm-7 7v3.781c0 .67.525 1.219 1.188 1.219H7v-2H4v-3zm10 0v3H9v2h3.813c.662 0 1.187-.549 1.187-1.219V9.004z"/>
</svg>
